icons/24x24_checkmark_badged_add_outline.svg

<svg xmlns="http://www.w3.org/2000/svg" width="24" height="24" viewBox="0 0 24 24">
  <path fill-rule="evenodd" d="M21.7441613,14.2574441 C21.1922215,14.0900251 20.606624,14 20,14 C19.9151206,14 19.8306528,14.0017625 19.7466312,14.0052529 C19.9120214,13.364436 20,12.692496 20,12 C20,7.58158644 16.4184136,4 12,4 C7.58158644,4 4,7.58158644 4,12 C4,16.4184136 7.58158644,20 12,20 C12.692496,20 13.364436,19.9120214 14.0052529,19.7466312 C14.0017625,19.8306528 14,19.9151206 14,20 C14,20.606624 14.0900251,21.1922215 14.2574441,21.7441613 C13.5319813,21.9115442 12.7763237,22 12,22 C6.47701386,22 2,17.5229861 2,12 C2,6.47701386 6.47701386,2 12,2 C17.5229861,2 22,6.47701386 22,12 C22,12.7763237 21.9115442,13.5319813 21.7441613,14.2574441 Z M10.85725,15.7765003 L7.29325,12.2125003 C6.90225,11.8215003 6.90225,11.1895003 7.29325,10.7985003 C7.68425,10.4075003 8.31625,10.4075003 8.70725,10.7985003 L10.85725,12.9485003 L15.29325,8.51250027 C15.68425,8.12250027 16.31625,8.12250027 16.70725,8.51250027 C17.09825,8.90350027 17.09825,9.53650027 16.70725,9.92650027 L10.85725,15.7765003 Z M21,19 L23,19 C23.5522847,19 24,19.4477153 24,20 C24,20.5522847 23.5522847,21 23,21 L21,21 L21,23 C21,23.5522847 20.5522847,24 20,24 C19.4477153,24 19,23.5522847 19,23 L19,21 L17,21 C16.4477153,21 16,20.5522847 16,20 C16,19.4477153 16.4477153,19 17,19 L19,19 L19,17 C19,16.4477153 19.4477153,16 20,16 C20.5522847,16 21,16.4477153 21,17 L21,19 Z"/>
</svg>

<svg width="24" height="24" fill="none" xmlns="http://www.w3.org/2000/svg"><path fill-rule="evenodd" clip-rule="evenodd" d="M21.744 14.257a6.001 6.001 0 0 0-1.997-.252 8 8 0 1 0-5.741 5.741 6.09 6.09 0 0 0 .251 1.998A9.985 9.985 0 0 1 12 22C6.477 22 2 17.523 2 12S6.477 2 12 2s10 4.477 10 10c0 .776-.088 1.532-.256 2.257Zm-10.887 1.52-3.564-3.564a.999.999 0 1 1 1.414-1.414l2.15 2.15 4.436-4.437a1 1 0 0 1 1.414 1.415l-5.85 5.85ZM21 19h2a1 1 0 1 1 0 2h-2v2a1 1 0 1 1-2 0v-2h-2a1 1 0 1 1 0-2h2v-2a1 1 0 1 1 2 0v2Z" fill="#000"/></svg>
